img/site-icons/footer/twitter.svg

<svg width="1000" height="1000" viewBox="0 0 1000 1000" fill="none" xmlns="http://www.w3.org/2000/svg">
<path d="M500 12C411.333 12 329 34.3333 253 79C179.667 121.667 121.667 179.667 79 253C34.3333 329 12 411.333 12 500C12 588.667 34.3333 671 79 747C121.667 820.333 179.667 878.333 253 921C329 965.667 411.333 988 500 988C588.667 988 671 965.667 747 921C820.333 878.333 878.333 820.333 921 747C965.667 671 988 588.667 988 500C988 411.333 965.667 329 921 253C878.333 179.667 820.333 121.667 747 79C671 34.3333 588.667 12 500 12ZM729 402C729.667 405.333 730 410.333 730 417C730 471 717 523 691 573C663.667 626.333 625.667 669 577 701C523.667 735.667 462.333 753 393 753C327.667 753 267.333 735.667 212 701C218.667 701.667 228 702 240 702C266.667 702 292.667 697.833 318 689.5C343.333 681.167 366.333 668.667 387 652C361.667 651.333 338.833 643.5 318.5 628.5C298.167 613.5 284.333 593.667 277 569C293 573 310.667 572.667 330 568C302.667 562 280 548.167 262 526.5C244 504.833 235 480 235 452V450C252.333 458.667 270.333 463.667 289 465C263 447.667 246.5 423.833 239.5 393.5C232.5 363.167 236.667 334.333 252 307C282 343.667 318.333 372.833 361 394.5C403.667 416.167 448.667 428.333 496 431C494 421.667 493 412.667 493 404C493 382.667 498.333 362.833 509 344.5C519.667 326.167 534 311.667 552 301C570 290.333 589.667 285 611 285C627.667 285 643.333 288.333 658 295C672.667 301.667 685.667 311 697 323C723 318.333 748 308.667 772 294C768 307.333 761.5 319.833 752.5 331.5C743.5 343.167 732.667 352.667 720 360C745.333 356.667 768 350.333 788 341C772.667 363.667 753 384 729 402Z" fill="#ED9092"/>
</svg>

<?xml version="1.0" encoding="UTF-8" standalone="no"?>
<svg
   viewBox="0 0 1000 1000"
   version="1.1"
   id="svg885"
   sodipodi:docname="twitter.svg"
   inkscape:version="1.2.2 (b0a8486541, 2022-12-01)"
   xmlns:inkscape="http://www.inkscape.org/namespaces/inkscape"
   xmlns:sodipodi="http://sodipodi.sourceforge.net/DTD/sodipodi-0.dtd"
   xmlns="http://www.w3.org/2000/svg"
   xmlns:svg="http://www.w3.org/2000/svg">
  <defs
     id="defs889" />
  <sodipodi:namedview
     id="namedview887"
     pagecolor="#ffffff"
     bordercolor="#666666"
     borderopacity="1.0"
     inkscape:showpageshadow="2"
     inkscape:pageopacity="0.0"
     inkscape:pagecheckerboard="0"
     inkscape:deskcolor="#d1d1d1"
     showgrid="false"
     inkscape:zoom="0.779"
     inkscape:cx="500"
     inkscape:cy="499.35815"
     inkscape:window-width="1920"
     inkscape:window-height="959"
     inkscape:window-x="0"
     inkscape:window-y="48"
     inkscape:window-maximized="1"
     inkscape:current-layer="svg885" />
  <path
     d="M500 12q-133 0-247 67-110 64-174 174-67 114-67 247 0 133 67 247 64 110 174 174 114 67 247 67 133 0 247-67 110-64 174-174 67-114 67-247 0-133-67-247-64-110-174-174-114-67-247-67z m229 390q1 5 1 15 0 81-39 156-41 80-114 128-80 52-184 52l0 0q-98 0-181-52 10 1 28 1 40 0 78-12.5 38-12.5 69-37.5-38-1-68.5-23.5-30.5-22.5-41.5-59.5 24 6 53-1-41-9-68-41.5-27-32.5-27-74.5l0-2q26 13 54 15-39-26-49.5-71.5-10.5-45.5 12.5-86.5 45 55 109 87.5 64 32.5 135 36.5-3-14-3-27 0-32 16-59.5 16-27.5 43-43.5 27-16 59-16 25 0 47 10 22 10 39 28 39-7 75-29-6 20-19.5 37.5-13.5 17.5-32.5 28.5 38-5 68-19-23 34-59 61z"
     id="path883"
     style="fill:#8c939a;fill-opacity:1" />
</svg>
